X:20
T:Dilwyn
T:Not for Joe
M:4/4
L:1/4
Q:100
Z:n Martin
K:G
"(Not for Joe)  1st time pp 2nd time ff"
DG/G/DG/G/|FEFE|DG/G/DG/G/|FGA2|
DG/G/DG/G/|FEFE|D2B>A|1GFG2:|2GFGA|]
B>AGB|c2A2|B>AGB|AFD2|B>AGB|c2Ac|BGAF|GG/G/G2||

